X:970
T:Paddy Lynn's Delight
R:reel
Z:transcribed by Dave Marshall
M:C|
K:Ador
|: eAAB cBAG | E~G3 AGED | eAAB cBAB | cdeg aged |
eAAB cBAG | E~G3 AGED | cdeg aged |1 cABG A2 cd :|2 cABG A3B |
|: c2ec gcec | cdeg aged | c2ec gcec | d=fed cAAB |
c2ec gcec | cdeg aged | eaag e=fed |1 cABG A3B :|2 cABG ABcd |
